assets/svg/1F424.svg

<svg xmlns="http://www.w3.org/2000/svg" viewBox="0 0 64 64" enable-background="new 0 0 64 64"><path fill="#f7ec35" d="m1.729 42.04c0 12.137 13.545 21.963 30.27 21.963 16.724 0 30.27-9.826 30.27-21.963.0001-12.12-13.544-42.04-30.27-42.04-16.727 0-30.27 29.912-30.27 42.04"/><path fill="#f4f5f5" d="m52.42 23.516c0 4.95-3.308 8.958-7.385 8.958-4.082 0-7.394-4.01-7.394-8.958 0-4.945 3.312-8.954 7.394-8.954 4.077 0 7.385 4.01 7.385 8.954"/><path fill="#25333a" d="m49.934 23.861c0 3.283-2.191 5.942-4.898 5.942-2.708 0-4.907-2.659-4.907-5.942 0-3.28 2.199-5.947 4.907-5.947 2.706 0 4.898 2.667 4.898 5.947"/><path fill="#f05a2a" d="m20.334 39.854c0-5.548 5.226-1.356 11.664-1.356 6.446 0 11.667-4.191 11.667 1.356 0 5.558-5.226 16.06-11.667 16.06-6.438-.0001-11.664-10.502-11.664-16.06"/><path fill="#f79420" d="m20.338 36.07c0-5.548 5.226-1.362 11.667-1.362s11.664-4.186 11.664 1.362c0 5.556-5.226 16.05-11.664 16.05-6.442 0-11.667-10.499-11.667-16.05"/><path fill="#f4f5f5" d="m26.824 22.894c0 4.949-3.308 8.956-7.385 8.956-4.081 0-7.393-4.01-7.393-8.956 0-4.948 3.312-8.954 7.393-8.954 4.078 0 7.385 4.01 7.385 8.954"/><path fill="#25333a" d="m24.339 23.24c0 3.286-2.192 5.942-4.899 5.942-2.707 0-4.907-2.657-4.907-5.942 0-3.279 2.2-5.945 4.907-5.945 2.707.0001 4.899 2.666 4.899 5.945"/></svg>

<?xml version="1.0" encoding="UTF-8" standalone="no"?>
<!-- Generator: Adobe Illustrator 16.0.0, SVG Export Plug-In . SVG Version: 6.00 Build 0)  -->

<svg
   xmlns:dc="http://purl.org/dc/elements/1.1/"
   xmlns:cc="http://creativecommons.org/ns#"
   xmlns:rdf="http://www.w3.org/1999/02/22-rdf-syntax-ns#"
   xmlns:svg="http://www.w3.org/2000/svg"
   xmlns="http://www.w3.org/2000/svg"
   xmlns:sodipodi="http://sodipodi.sourceforge.net/DTD/sodipodi-0.dtd"
   xmlns:inkscape="http://www.inkscape.org/namespaces/inkscape"
   version="1.1"
   id="Layer_1"
   x="0px"
   y="0px"
   width="64px"
   height="64px"
   viewBox="0 0 64 64"
   enable-background="new 0 0 64 64"
   xml:space="preserve"
   inkscape:version="0.48.5 r10040"
   sodipodi:docname="1F424.svg"
   inkscape:export-filename="D:\TESTINGEMOJI\SVGTEST\1F424.png"
   inkscape:export-xdpi="90"
   inkscape:export-ydpi="90"><metadata
   id="metadata4715"><rdf:RDF><cc:Work
       rdf:about=""><dc:format>image/svg+xml</dc:format><dc:type
         rdf:resource="http://purl.org/dc/dcmitype/StillImage" /><dc:title></dc:title></cc:Work></rdf:RDF></metadata><defs
   id="defs4713" /><sodipodi:namedview
   pagecolor="#ffffff"
   bordercolor="#666666"
   borderopacity="1"
   objecttolerance="10"
   gridtolerance="10"
   guidetolerance="10"
   inkscape:pageopacity="0"
   inkscape:pageshadow="2"
   inkscape:window-width="640"
   inkscape:window-height="480"
   id="namedview4711"
   showgrid="false"
   inkscape:zoom="3.6875"
   inkscape:cx="32"
   inkscape:cy="32"
   inkscape:window-x="424"
   inkscape:window-y="296"
   inkscape:window-maximized="0"
   inkscape:current-layer="Layer_1" />
<g
   id="g4681">
	<path
   fill="#F7EC35"
   d="M1.729,42.037C1.729,54.174,15.274,64,32.001,64c16.724,0,30.269-9.826,30.269-21.963   C62.271,29.912,48.726,0,32.001,0C15.274,0,1.729,29.912,1.729,42.037z"
   id="path4683" />
</g>
<g
   id="g4685">
	<path
   fill="#F4F5F5"
   d="M52.42,23.516c0,4.95-3.308,8.958-7.385,8.958c-4.082,0-7.394-4.009-7.394-8.958   c0-4.945,3.312-8.954,7.394-8.954C49.112,14.562,52.42,18.571,52.42,23.516z"
   id="path4687" />
</g>
<g
   id="g4689">
	<path
   fill="#25333A"
   d="M49.934,23.861c0,3.283-2.191,5.942-4.898,5.942c-2.708,0-4.907-2.659-4.907-5.942   c0-3.28,2.199-5.947,4.907-5.947C47.742,17.914,49.934,20.581,49.934,23.861z"
   id="path4691" />
</g>
<g
   id="g4693">
	<g
   id="g4695">
		<path
   fill="#F05A2A"
   d="M20.334,39.854c0-5.548,5.226-1.356,11.664-1.356c6.446,0,11.667-4.191,11.667,1.356    c0,5.558-5.226,16.059-11.667,16.059C25.56,55.912,20.334,45.411,20.334,39.854z"
   id="path4697" />
	</g>
	<g
   id="g4699">
		<path
   fill="#F79420"
   d="M20.338,36.072c0-5.548,5.226-1.362,11.667-1.362s11.664-4.186,11.664,1.362    c0,5.556-5.226,16.055-11.664,16.055C25.563,52.127,20.338,41.628,20.338,36.072z"
   id="path4701" />
	</g>
</g>
<g
   id="g4703">
	<path
   fill="#F4F5F5"
   d="M26.824,22.894c0,4.949-3.308,8.956-7.385,8.956c-4.081,0-7.393-4.007-7.393-8.956   c0-4.948,3.312-8.954,7.393-8.954C23.517,13.94,26.824,17.946,26.824,22.894z"
   id="path4705" />
</g>
<g
   id="g4707">
	<path
   fill="#25333A"
   d="M24.339,23.236c0,3.286-2.192,5.942-4.899,5.942c-2.707,0-4.907-2.657-4.907-5.942   c0-3.279,2.2-5.945,4.907-5.945C22.147,17.292,24.339,19.957,24.339,23.236z"
   id="path4709" />
</g>
</svg>
